X:398
T:Porthole of the Kelp, The
R:reel
C:Bobby Casey
M:C|
K:Ddor
DE|:~F3E F2DE|FEFG ECCE|F2DE FGAG|FDEC A,DDE|
~F3E FGAd|cAGF EDCE|DEFG AddB|cAGF EDCE:|
|:Dddc dcAG|~F3G EDCE|Dddc dcAG|Addc d2de|
eddc dcAG|~F3G EDCE|DEFG AddB|cAGF EDCE:|
